X: 733
T: Aileen Bonner's
R: polka
M: 2/4
K: Dmajor
|:F/G/|AD F>D|FA de/d/|cA- AG|EF GF/G/|
AD F/E/D|FA d>d|cA G/F/E|D2- D:|
|:F/G/|Ad d>e|fd e>d|cA AB|cd ed/c/|
Ad- d>e|f/e/d ee/d/|c/B/A GE|D2- D:|

